X:1
T:Sheridan, 87.8 D
T:Sheridan, 87.8 D
T:George Frederick Root, 1881
T:Public Domain Courtesy of the Cyber Hymnal™
C:George Frederick Root, 1881
Z:Public Domain
Z:Courtesy of the Cyber Hymnal™
%%score ( 1 2 ) ( 3 4 )
L:1/8
Q:1/4=110
M:4/4
K:F
V:1 treble 
V:2 treble 
V:3 bass 
V:4 bass 
V:1
 C>C | [CF]2 [CG]2 [FA]2 [FB]2 | [Fc]2 [Fd]4 [Fc]>[FA] | F2 F2 [EG]2 [EG]2 | [FA]6 [FA]>[FA] | %5
 [EG]2 [Ec]2 [Ed]2 [Ee]2 | [Fd]2 [Fc]2 [FA]2 [Fc]2 | [EG]2 [EG]2 [FA]2 [FG]2 | [Ec]6 C>C | %9
 [CF]2 [CG]2 [FA]2 [FB]2 | [Fc]2 [Fd]4 [Fc]>[FA] | F2 F2 [EG]2 [EG]2 | [FA]6 [FG]>[FA] | %13
 [FB]2 [Fc]2 [Bd]2 [Ge]2 | [Ff]2 [FA]4 [FA]>[F=B] | [Fc]2 [Fc]2 [Ed]2 [Ec]2 | F6 |] %17
V:2
 C>C | x8 | x8 | F2 F2 x4 | x8 | x8 | x8 | x8 | x6 C>C | x8 | x8 | F2 F2 x4 | x8 | x8 | x8 | x8 | %16
 F6 |] %17
V:3
 C,>C, | [F,A,]2 [F,B,]2 [F,C]2 [F,B,]2 | [F,A,]2 [F,B,]4 [F,A,]>[F,A,] | %3
 [D,A,]2 [D,A,]2 [C,C]2 [C,C]2 | [F,C]6 [F,C]>[F,C] | [C,C]2 [C,C]2 [C,C]2 [C,C]2 | %6
 [F,A,]2 [F,A,]2 [F,C]2 [F,A,]2 | G,2 [G,C]2 [G,=B,]2 [G,D]2 | [C,C]6 [C,C]>[C,C] | %9
 [F,A,]2 [F,B,]2 [F,C]2 [F,B,]2 | [F,A,]2 [F,B,]4 [F,A,]>[F,A,] | [D,A,]2 [D,A,]2 [C,C]2 [C,C]2 | %12
 [F,C]6 [F,C]>[F,C] | [B,,D]2 [B,,D]2 [B,,B,]2 [C,B,]2 | [D,A,]2 [D,A,]4 [D,A,]>[D,^G,] | %15
 [C,A,]2 [C,A,]2 [C,B,]2 [C,B,]2 | [F,A,]6 |] %17
V:4
 C,>C, | x8 | x8 | x8 | x8 | x8 | x8 | G,2 x6 | x8 | x8 | x8 | x8 | x8 | x8 | x8 | x8 | x6 |] %17

